X:1
T:I Will Praise Thee, O Lord
T:D Major, D minor      Hezekiah Moors, 1809
T:Transcribed from Province Harmony, 1809.
T:Various Scriptures
T:Anthem
%%score [ 1 2 3 ]
L:1/8
Q:1/4=90
M:2/4
K:D
V:1 treble nm="Tr." snm="Tr."
V:2 treble-8 nm="T." snm="T."
V:3 bass nm="B." snm="B."
V:1
 z4 | z4 | z4 | z4 | z4 | z4 |"_I  will  show forth  all   thy  wondrous  works." d2 AF | G2 A2 | %8
 BA Bc | d2 e2 | d4 | z4 | z4 | z4 | z4 | z4 | f2 f2 | d2 d2 | e2 e2 | (d2 c2) | (d2 Ad) | cB A^G | %22
 A4 | d2 e2 | f2 f>e | d2 d2 | d2 e e | d4 | d2 d d | A2 A2 | D2 E2 | F2 F F | F2 G2 | A>G F2 |: %34
 z4 | z4 |"_My sal – va  – tion,                                 ev–en  my  sal –" d2 B2 | ec A2 | %38
 z4 | z4 | e f g f | e>d c2 | d2 d d | e2 e2 | d2 Ad | c2 c c | A2 G2 | (F2 dc | d2) d2 | d>c B2 | %50
 A2 G2 | F2 F2 :|"_I    will    sing   a" DF E2 | F2 F2 | %54
"_new song un – to     thee,   O    God.        Up  – on     a        psaltery,  and  an  in–stru–ment  of  ten  strings will  I   sing                 prai – ses" A2 A2 | %55
 F>E D2 | E>F G2 | F4 | z2 A2 | BA GA | B2 B2 | A2 d2 | c3/2 B/ A ^G | A2 A2 | G2 F2 | EDEF | %66
 G2 G/A/B |"_un  –  to       thee." AG FE | D4 | z4 | z4 | z4 | z4 | z4 | z4 | z4 | z4 | z4 | z4 | %79
 z4 | z4 | z4 | z4 | z4 | z4 || %85
[M:3/4] z2 z2"_O Lord, how excellent,  how  excellent        is     thy   name  in    all     the     earth!   How excellent, how" F2 | %86
 A4 B2 | A3/2 G/ F2 A2 | B3/2 A/ G2 F E | E4 F2 | (G2 F2) B2 | (B A3) A2 | d3/2 c/ B2 f2 | %93
"_excellent   is    thy   name   in      all        the   earth.                Out of the mouths of  babes and sucklings, of babes and sucklings, thou hast or –" e3/2 d/ c2 A A | %94
 (B2 c2) d2 | (e3 d) c2 | d6 ||[K:F][M:2/4] A2 A G | F2 F2 | FE D2 | A2 A G | A2 d2 | ^c2 c2 | %103
 c2 c c |"_-dai-ned strength, thou hast or-dai-ned strength." c2 B2 | A4 | A2 d d | ^c2 c2 | d4 || %109
[K:D] z2 D2 | F/G/F/G/ A A | A G (F/E/D/E/ | F2) G E | F3 d | dc c c | d/e/d/e/f f | e/d/c/d/e c | %117
 d3 e | f f e d | (c2 ec) | A2 A2 | A4 | z4 | z4 | z4 | z4 | z4 | z4 | z4 | %129
 z2"_And the   ho – ly    one  of       Is  –  rael     is     our    King.                                              Is  our  King,  the" A3/2 A/ | %130
 d d d e | f>e d2 | c2 B2 | A4 | z4 | z4 | f2 e2 | d3 c | d d d d | c2 c A | B B B c | d>e f2 | %142
 e2 c2 | d4 | A2 A z | d2 d z | c B A ^G | A4 | B3 B | A2 A d | %150
"_on–ly do–eth wondrous things, and blessed  be  his  glorious  name  for–ev–er.       And let the whole earth be  fil – led  wth  his    glo – ry." c3/2 c/ c d | %151
 B2 A2 | A3 A | A A A A | A2 f2 | e3 c | d A z F | A2 A B | A2 G2 | F E F G | A2 A z | %161
"_A  –  men,         A   –  men,     and      A      –    men." d4 | c3 z | A4 | B2 z f/e/ | %165
 (d2 c2) | d4- | d4 |] %168
V:2
"_I will praise thee, O       Lord, with my whole heart," D2 FA | G2 F2 | EDEF | G2 G2 | F2 E2 | %5
 D4 | z4 | z4 | z4 | z4 | z4 | z4 | z4 | z4 | z4 | z4 | %16
"_I  will sing praise  to  thy  name,     O                          thou    most     high,  For thou hast  maintained    my   right  and  my cause." a2 a2 | %17
 d2 d2 | g2 g2 | (f2 e2) | d>ed/e/f | ed cB | A4 | F2 G2 | A2 A>G | FG A2 | BA B c | d4 | %28
"_Thou art become my strength and song, even my sal –va – tion.                                                                    My  sal – va –tion.    e–ven  my  sal –" d2 d d | %29
 e2 e2 | f2 e2 | d2 d d | A2 G2 | F>E D2 |: z4 | z4 | z4 | z4 | g2 e2 | af d2 | c d e d | %41
"_– va–tion,  Thou art become my strength and song, even   my  sal – va        –        –    tion,    e  –  ven   my  sal –va –tion." c>B A2 | %42
 B2 B d | c2 A2 | d2 fd | e2 e e | d2 B2 | (A>BAF | A2) A2 | B>c d2 | F2 E2 | D2 D2 :| z4 | z4 | %54
 z4 | z4 | z4 | z4 | z4 | z4 | z4 | z4 | z4 | z4 | z4 | z4 | z4 | z4 | z4 | z4 | z4 | z4 | z4 | %73
 z4 | z4 | z4 | z4 | z4 | z4 | z4 | z4 | z4 | z4 | z4 | z4 ||[M:3/4] z2 z2 D2 | F4 G2 | %87
 F3/2 E/ D2 A2 | G3/2 F/ E2 F ^G | A4 A2 | (B2 A2) d2 | (d c3) d2 | f3/2 e/ d2 a2 | %93
 g3/2 f/ e2 d e | (d2 A2) B2 | (G3 F) E2 | D6 ||[K:F][M:2/4] z4 | z4 | z4 | z4 | z4 | z4 | z4 | %104
 z4 | z4 | z4 | z4 | z4 || %109
[K:D] z2"_O    sing              praises       to     the   Lord,                    all    the  earth,   sing  praises,  sing" D2 | %110
 D/E/D/E/ F F | E E (F/G/F/G/ | A2) B c | d3 f | fe e e | %115
"_prai        –       ses    to                     the   Lord, sing praises to the   Lord,        all   the  earth." f/g/f/g/a a | %116
 e/f/e/f/g g | f3 e | d d c B | (A2 ce) | d2 c2 | d4 | z4 | z4 | z4 | z4 | %126
 z2"_For  Je –ho –vah is our strength, And the   ho – ly    one  of       Is  –  rael     is     our    King.                                            Is  our  King,  the" A A | %127
 d2 d2 | c2 e2 | !fermata!d2 A3/2 A/ | B B B c | d>c B2 | E2 ^G2 | A4 | z4 | z4 | d2 c2 | d3 e | %138
"_ho – ly  one of   Israel,  the   holy one  of    Is  –  rael    is  our  King.  Bles–sed,   bles–sed,   bles–sed  be    the     Lord   God  of   Is – rael, who" f f f f | %139
 e2 e f | g g g g | f>e d2 | c2 e2 | d4 | d2 A z | f2 d z | e d c B | A4 | g3 g | f2 f d | %150
"_on–ly do–eth wondrous things, and blessed  be  his  glorious  name  for–ev–er." e3/2 e/ e f | %151
 B2 c2 | d3 c | d d d d | c2 d2 | e3 e | f d z2 | z4 | z4 | z4 | z4 | %161
"_A  –  men,         A   –  men,     and      A      –    men." d4 | e3 z | f4 | g2 z a/g/ | %165
 (f2 e2) | d4- | d4 |] %168
V:3
 z4 | z4 | z4 | z4 | z4 | z4 | z4 | z4 | z4 | z4 | z4 | %11
"_I   will  be  glad  and  re – joice  in" D,>E, F, G, | A,2 A, A, | DC B,2 | %14
"_thee, my God." G,2 A,2 | D,4 | D2 D2 | B,2 B,2 | E,2 E,2 | A,4 | D,4 | E,2 E,2 | A,,4 | %23
 B,,2 E,2 | D,2 D,2 | D,2 D,2 | G,F, E, A, | D,4 | D,2 D, D, | C,2 C,2 | B,,2 A,,2 | D,2 D, D, | %32
 D,2 E,2 | F,>G, A,2 |: %34
"_My sal – va –tion.   my  sal – va – tion,   My sal– va – tion,  ev–en   my  sal –" G,2 E,2 | %35
 A,F, D,2 | D,2 E,2 | A,,2 A,,2 | E,2 A,2 | D,2 D,2 | E, D, C, B,, | A,,2 A,,2 | G,2 G, F, | %43
 E,2 A,2 | D,2 D,2 | A,,2 A,, A,, | D,2 E,2 | (F,>G, A,2 | D,2) D,2 | G,>A, B,2 | A,2 A,,2 | %51
 D,2 D,2 :| z4 | z4 | z4 | z4 | z4 | z4 | z4 | z4 | z4 | z4 | z4 | z4 | z4 | z4 | z4 | z4 | z4 | %69
"_I  will bless thee,  I   will   bless  thee,  O  my  God;      Thy praise shall  ev – er      be  in  my mouth, and  in thee shall my" D,2 D,2 | %70
 B,,2 A,,2 | D,2 D,2 | D,>E, F,2 | G,2 A,2 | D,4 | z2 A,2 | D2 A,2 | F,>E, D,2 | E,2 E, E, | %79
 A,,3 A,, | D,2 D,2 | G,2 F,2 |"_soul          make her boast." E,D,E,F, | G,2 A,2 | D,4 || %85
[M:3/4] z6 | z6 | z6 | z6 | z6 | z6 | z6 | z6 | z6 | z6 | z6 | z6 || %97
[K:F][M:2/4]"_Out of the mouths of  babes and sucklings, of babes and sucklings, thou hast or –" D,>E, F, G, | %98
 A,2 A,2 | F,G, A,2 | D,2 D, E, | F,2 D,2 | A,2 A,2 | F,2 F, F, | %104
"_-dai-ned strength, thou hast or-dai-ned strength." C,2 C,2 | F,4 | D2 G, G, | A,2 A,2 | D,4 || %109
[K:D] z2 D,2 | D,2 D, D, | A,, A,, D,2- | D,2 G, A, | D,3 D | A,2 A, A, | D3 D, | A,3 A,, | %117
 D,3 A, | F, D, E, E, | A,,4 | A,2 A,2 | D,4 | %122
"_Praise him upon  the  high sounding cymbals and" D,2 D, D, | D,2 B,, B,, | E,2 E,2 | F,G, A, A, | %126
"_harp. For  Je –ho –vah is our strength, And the   ho – ly    one  of       Is  –  rael    is     our   King.  The  holy  one of   Is–rael   is  our  King,  the" D,2 D, D, | %127
 D,2 D,2 | A,,2 A,,2 | !fermata!D,2 D,3/2 C,/ | B,, B,, B,, A,, | B,,2 B,,2 | E,2 E,2 | A,,3 D, | %134
 G, F, E, D, | A,2 A,2 | F,2 A,2 | D,3 A, | D D D D | A,2 A, D | G, G, E, E, | F,2 F,2 | A,2 A,2 | %143
 D,4 | D,2 D, z | D,2 D, z | C, D, E, E, | A,,4 | G,,3 G,, | D,2 D, D, | %150
"_on–ly do–eth wondrous things, and blessed  be  his  glorious  name  for–ev–er.       And let the whole earth be  fil – led  wth  his    glo – ry." A,3/2 A,/ A, D | %151
 G,2 A,2 | D,3 A,, | D, D, D, D, | A,,2 D,2 | A,3 A, | D D, z D, | D,2 A, G, | F,2 E,2 | %159
 D, C, D, E, | A,,2 A,, z | %161
"___________________________________________________________________\nEdited by B. C. Johnston, 2018\n    1. Measure 11 has a half note on F in \nBass\n, an apparent misprint.\n    2. Grace eighth notes converted to normal eighth notes, in measures 92 and 115.""_A  –  men,         A   –  men,     and      A      –    men." D,4 | %162
 A,3 z | D4 | G,2 z F,/G,/ | A,4 | D,4- | D,4 |] %168

